svg/icon/nas.svg

<svg height="32" viewBox="0 0 32 32" width="32" xmlns="http://www.w3.org/2000/svg" xmlns:xlink="http://www.w3.org/1999/xlink"><defs><linearGradient id="a" x1="50%" x2="50%" y1="0%" y2="100%"><stop offset="0" stop-color="#fff" stop-opacity=".5"/><stop offset="1" stop-opacity=".5"/></linearGradient><circle id="b" cx="16" cy="15" r="15"/><filter id="c" height="111.7%" width="111.7%" x="-5.8%" y="-4.2%"><feOffset dy=".5" in="SourceAlpha" result="shadowOffsetOuter1"/><feGaussianBlur in="shadowOffsetOuter1" result="shadowBlurOuter1" stdDeviation=".5"/><feComposite in="shadowBlurOuter1" in2="SourceAlpha" operator="out" result="shadowBlurOuter1"/><feColorMatrix in="shadowBlurOuter1" values="0 0 0 0 0   0 0 0 0 0   0 0 0 0 0  0 0 0 0.199473505 0"/></filter><path id="d" d="m12.7307107 17.6550286c1.0621527 2.1546689 2.0881319 4.2362191 3.1456249 6.3816869.5497149-1.6241908 1.0777257-3.1842186 1.6155463-4.7730769-1.5723833-.5313369-3.1242887-1.0555583-4.7611712-1.60861m-5.75404234-2.7688164c1.62314882.5508434 3.18277944 1.0802175 4.76472724 1.6170751.53733-1.5851777 1.0655861-3.1432427 1.6172629-4.7702551-2.1563097 1.0653729-4.23806523 2.0939412-6.38199014 3.15318m6.03141354 2.0233988c.0745543.0407306.1060681.0641629.1413833.0763084 1.5355966.5222585 3.0703349 1.0477067 4.610346 1.5569608.1237257.0409759.3021408.0063795.425376-.0538575 1.7608535-.8588986 3.5166794-1.7279799 5.2732411-2.5954663.4998077-.2468368.9977761-.4966179 1.5427087-.7681138-.1195565-.0461285-.1824617-.0728732-.2468383-.0948334-1.487774-.5042241-2.9740765-1.0126195-4.4660197-1.5040847-.1423643-.0469873-.342974-.0354552-.4772452.0298118-1.8717039.9106705-3.7367861 1.8353269-5.6033398 2.7569162-.3884669.1918751-.7759527.3857131-1.1996121.5963585m6.498849-4.0647093c-1.130821-2.2934225-2.2457012-4.55433429-3.3898881-6.87474695-1.1693244 3.45056183-2.3113041 6.82076675-3.4792797 10.26666665 2.3277355-1.1494103 4.5836144-2.2633654 6.8691678-3.3919197m-14.5069309 2.1574906c1.09366657-.5418876 2.12626733-1.0549449 3.16033955-1.5651805 1.75791052-.8676091 3.51557575-1.7355863 5.27679715-2.5965705.1879797-.091889.2960097-.212363.3635745-.4136847.6884005-2.0525972 1.3866108-4.1020047 2.0827365-6.15202561.025628-.07557228.056774-.14942702.1047193-.27493099.0703851.13617733.1217637.23174683.169709.32903388 1.3455323 2.7293127 2.6878765 5.46034295 4.0443223 8.18425762.0653576.1312701.2407072.2415614.3885894.2925972 2.0358949.7019881 4.0760815 1.3918305 6.1151645 2.0849854.0767614.0260087.1529098.0539802.2940478.1039119-.1884702.0956922-.3272784.1678294-.4674355.2370222-2.6279143 1.2971197-5.2542346 2.5974292-7.8865634 3.8852251-.2594684.1268535-.4013421.2906343-.4929408.5649519-.678836 2.0340722-1.3747165 4.0623784-2.065692 6.0922794-.0188839.0554524-.0421821.1094326-.087307.2257354-.1774342-.3551652-.3305892-.6578224-.480556-.9619518-1.2235234-2.4823532-2.4483956-4.9638477-3.6659105-7.4491454-.1012859-.2065969-.2280771-.3302607-.4532113-.4057103-2.04214859-.683463-4.080128-1.3800529-6.11896577-2.0734532-.07528997-.0255179-.14874061-.0565565-.28141773-.107347"/><filter id="e" height="115.9%" width="115.9%" x="-8%" y="-5.7%"><feOffset dy=".5" in="SourceAlpha" result="shadowOffsetOuter1"/><feGaussianBlur in="shadowOffsetOuter1" result="shadowBlurOuter1" stdDeviation=".5"/><feColorMatrix in="shadowBlurOuter1" values="0 0 0 0 0   0 0 0 0 0   0 0 0 0 0  0 0 0 0.204257246 0"/></filter></defs><g fill="none" fill-rule="evenodd"><use fill="#000" filter="url(#c)" xlink:href="#b"/><use fill="#222" xlink:href="#b"/><use fill="url(#a)" xlink:href="#b"/><circle cx="16" cy="15" r="14.5" stroke="#000" stroke-opacity=".097"/><use fill="#000" filter="url(#e)" xlink:href="#d"/><use fill="#fff" xlink:href="#d"/></g></svg>

<svg xmlns="http://www.w3.org/2000/svg" xmlns:xlink="http://www.w3.org/1999/xlink" width="32" height="32" viewBox="0 0 32 32">
  <defs>
    <linearGradient id="nas-c" x1="50%" x2="50%" y1="0%" y2="100%">
      <stop offset="0%" stop-color="#FFF" stop-opacity=".5"/>
      <stop offset="100%" stop-opacity=".5"/>
    </linearGradient>
    <circle id="nas-b" cx="16" cy="15" r="15"/>
    <filter id="nas-a" width="111.7%" height="111.7%" x="-5.8%" y="-4.2%" filterUnits="objectBoundingBox">
      <feOffset dy=".5" in="SourceAlpha" result="shadowOffsetOuter1"/>
      <feGaussianBlur in="shadowOffsetOuter1" result="shadowBlurOuter1" stdDeviation=".5"/>
      <feComposite in="shadowBlurOuter1" in2="SourceAlpha" operator="out" result="shadowBlurOuter1"/>
      <feColorMatrix in="shadowBlurOuter1" values="0 0 0 0 0   0 0 0 0 0   0 0 0 0 0  0 0 0 0.199473505 0"/>
    </filter>
    <path id="nas-e" d="M12.7307107,17.6550286 C13.7928634,19.8096975 14.8188426,21.8912477 15.8763356,24.0367155 C16.4260505,22.4125247 16.9540613,20.8524969 17.4918819,19.2636386 C15.9194986,18.7323017 14.3675932,18.2080803 12.7307107,17.6550286 M6.97666836,14.8862122 C8.59981718,15.4370556 10.1594478,15.9664297 11.7413956,16.5032873 C12.2787256,14.9181096 12.8069817,13.3600446 13.3586585,11.7330322 C11.2023488,12.7984051 9.12059327,13.8269734 6.97666836,14.8862122 M13.0080819,16.909611 C13.0826362,16.9503416 13.11415,16.9737739 13.1494652,16.9859194 C14.6850618,17.5081779 16.2198001,18.0336261 17.7598112,18.5428802 C17.8835369,18.5838561 18.061952,18.5492597 18.1851872,18.4890227 C19.9460407,17.6301241 21.7018666,16.7610428 23.4584283,15.8935564 C23.958236,15.6467196 24.4562044,15.3969385 25.001137,15.1254426 C24.8815805,15.0793141 24.8186753,15.0525694 24.7542987,15.0306092 C23.2665247,14.5263851 21.7802222,14.0179897 20.288279,13.5265245 C20.1459147,13.4795372 19.945305,13.4910693 19.8110338,13.5563363 C17.9393299,14.4670068 16.0742477,15.3916632 14.207694,16.3132525 C13.8192271,16.5051276 13.4317413,16.6989656 13.0080819,16.909611 M19.5069309,12.8449017 C18.3761099,10.5514792 17.2612297,8.29056741 16.1170428,5.97015475 C14.9477184,9.42071658 13.8057387,12.7909215 12.6377631,16.2368214 C14.9654986,15.0874111 17.2213775,13.973456 19.5069309,12.8449017 M5,15.0023923 C6.09366657,14.4605047 7.12626733,13.9474474 8.16033955,13.4372118 C9.91825007,12.5696027 11.6759153,11.7016255 13.4371367,10.8406413 C13.6251164,10.7487523 13.7331464,10.6282783 13.8007112,10.4269566 C14.4891117,8.3743594 15.187322,6.3249519 15.8834477,4.27493099 C15.9090757,4.19935871 15.9402217,4.12550397 15.988167,4 C16.0585521,4.13617733 16.1099307,4.23174683 16.157876,4.32903388 C17.5034083,7.05834658 18.8457525,9.78937683 20.2021983,12.5132915 C20.2675559,12.6445616 20.4429055,12.7548529 20.5907877,12.8058887 C22.6266826,13.5078768 24.6668692,14.1977192 26.7059522,14.8908741 C26.7827136,14.9168828 26.858862,14.9448543 27,14.994786 C26.8115298,15.0904782 26.6727216,15.1626154 26.5325645,15.2318082 C23.9046502,16.5289279 21.2783299,17.8292374 18.6460011,19.1170333 C18.3865327,19.2438868 18.244659,19.4076676 18.1530603,19.6819852 C17.4742243,21.7160574 16.7783438,23.7443636 16.0873683,25.7742646 C16.0684844,25.829717 16.0451862,25.8836972 16.0000613,26 C15.8226271,25.6448348 15.6694721,25.3421776 15.5195053,25.0380482 C14.2959819,22.555695 13.0711097,20.0742005 11.8535948,17.5889028 C11.7523089,17.3823059 11.6255177,17.2586421 11.4003835,17.1831925 C9.35823491,16.4997295 7.3202555,15.8031396 5.28141773,15.1097393 C5.20612776,15.0842214 5.13267712,15.0531828 5,15.0023923"/>
    <filter id="nas-d" width="115.9%" height="115.9%" x="-8%" y="-5.7%" filterUnits="objectBoundingBox">
      <feOffset dy=".5" in="SourceAlpha" result="shadowOffsetOuter1"/>
      <feGaussianBlur in="shadowOffsetOuter1" result="shadowBlurOuter1" stdDeviation=".5"/>
      <feColorMatrix in="shadowBlurOuter1" values="0 0 0 0 0   0 0 0 0 0   0 0 0 0 0  0 0 0 0.204257246 0"/>
    </filter>
  </defs>
  <g fill="none" fill-rule="evenodd">
    <use fill="#000" filter="url(#nas-a)" xlink:href="#nas-b"/>
    <use fill="#222" xlink:href="#nas-b"/>
    <use fill="url(#nas-c)" style="mix-blend-mode:soft-light" xlink:href="#nas-b"/>
    <circle cx="16" cy="15" r="14.5" stroke="#000" stroke-opacity=".097"/>
    <g>
      <use fill="#000" filter="url(#nas-d)" xlink:href="#nas-e"/>
      <use fill="#FFF" xlink:href="#nas-e"/>
    </g>
  </g>
</svg>
